icons/assets/Group 307.svg

<svg width="80" height="76" viewBox="0 0 80 76" fill="none" xmlns="http://www.w3.org/2000/svg">
<g clip-path="url(#clip0_662_5584)">
<path d="M63.1245 1L78.9374 27.25H47.3115L63.1245 1Z" fill="#DFFEAE" fill-opacity="0.5"/>
<path fill-rule="evenodd" clip-rule="evenodd" d="M39.6501 26.1393C32.8274 26.1393 27.2751 31.4608 27.2751 37.9998C27.2751 44.5388 32.8274 49.8603 39.6501 49.8603C46.4728 49.8603 52.0251 44.5388 52.0251 37.9998C52.0251 31.4608 46.4728 26.1393 39.6501 26.1393ZM39.6501 52.651C31.2201 52.651 24.3633 46.0793 24.3633 37.9998C24.3633 29.9203 31.2201 23.3486 39.6501 23.3486C48.0801 23.3486 54.9369 29.9203 54.9369 37.9998C54.9369 46.0793 48.0801 52.651 39.6501 52.651Z" fill="#0A3B70"/>
<path fill-rule="evenodd" clip-rule="evenodd" d="M69.494 39.3954H60.5399C59.7354 39.3954 59.084 38.7719 59.084 38.0001C59.084 37.2283 59.7354 36.6047 60.5399 36.6047H69.494C70.2993 36.6047 70.9499 37.2283 70.9499 38.0001C70.9499 38.7719 70.2993 39.3954 69.494 39.3954Z" fill="#0A3B70"/>
<path fill-rule="evenodd" clip-rule="evenodd" d="M54.4216 25.2364C54.0489 25.2364 53.6761 25.1 53.3916 24.8273C52.8226 24.2827 52.8226 23.3993 53.3916 22.8547L59.7226 16.7861C60.2917 16.2415 61.2126 16.2415 61.7817 16.7861C62.3499 17.3315 62.3499 18.2142 61.7817 18.7595L55.4498 24.8273C55.1661 25.1 54.7934 25.2364 54.4216 25.2364Z" fill="#0A3B70"/>
<mask id="mask0_662_5584" style="mask-type:alpha" maskUnits="userSpaceOnUse" x="38" y="8" width="4" height="12">
<path d="M38.1934 8H41.1051V19.3715H38.1934V8Z" fill="white"/>
</mask>
<g mask="url(#mask0_662_5584)">
<path fill-rule="evenodd" clip-rule="evenodd" d="M39.6492 19.3715C38.8439 19.3715 38.1934 18.7471 38.1934 17.9761V9.39511C38.1934 8.62407 38.8439 7.99976 39.6492 7.99976C40.4546 7.99976 41.1051 8.62407 41.1051 9.39511V17.9761C41.1051 18.7471 40.4546 19.3715 39.6492 19.3715Z" fill="#0A3B70"/>
</g>
<path fill-rule="evenodd" clip-rule="evenodd" d="M24.875 25.2364C24.5023 25.2364 24.1296 25.1 23.8459 24.8273L17.514 18.7595C16.9458 18.2142 16.9458 17.3315 17.514 16.7861C18.0831 16.2415 19.004 16.2415 19.5731 16.7861L25.9041 22.8547C26.4731 23.3993 26.4731 24.2827 25.9041 24.8273C25.6204 25.1 25.2469 25.2364 24.875 25.2364Z" fill="#0A3B70"/>
<mask id="mask1_662_5584" style="mask-type:alpha" maskUnits="userSpaceOnUse" x="8" y="36" width="13" height="4">
<path d="M8.34766 36.6047H20.2125V39.3954H8.34766V36.6047Z" fill="white"/>
</mask>
<g mask="url(#mask1_662_5584)">
<path fill-rule="evenodd" clip-rule="evenodd" d="M18.7568 39.3954H9.80354C8.99906 39.3954 8.34766 38.7719 8.34766 38.0001C8.34766 37.2283 8.99906 36.6047 9.80354 36.6047H18.7568C19.5613 36.6047 20.2127 37.2283 20.2127 38.0001C20.2127 38.7719 19.5613 39.3954 18.7568 39.3954Z" fill="#0A3B70"/>
</g>
<path fill-rule="evenodd" clip-rule="evenodd" d="M18.5438 59.6211C18.1719 59.6211 17.7984 59.4848 17.5147 59.2121C16.9456 58.6675 16.9456 57.784 17.5147 57.2395L23.8457 51.1709C24.4147 50.6263 25.3357 50.6263 25.9047 51.1709C26.4729 51.7163 26.4729 52.5989 25.9047 53.1443L19.5729 59.2121C19.2892 59.4848 18.9156 59.6211 18.5438 59.6211Z" fill="#0A3B70"/>
<path fill-rule="evenodd" clip-rule="evenodd" d="M39.6492 67.9999C38.8439 67.9999 38.1934 67.3764 38.1934 66.6046V58.0228C38.1934 57.2518 38.8439 56.6274 39.6492 56.6274C40.4546 56.6274 41.1051 57.2518 41.1051 58.0228V66.6046C41.1051 67.3764 40.4546 67.9999 39.6492 67.9999Z" fill="#0A3B70"/>
<path fill-rule="evenodd" clip-rule="evenodd" d="M60.752 59.6211C60.3801 59.6211 60.0065 59.4848 59.7229 59.2121L53.391 53.1443C52.8228 52.5989 52.8228 51.7163 53.391 51.1709C53.96 50.6263 54.881 50.6263 55.45 51.1709L61.7811 57.2395C62.3501 57.784 62.3501 58.6675 61.7811 59.2121C61.4974 59.4848 61.1247 59.6211 60.752 59.6211Z" fill="#0A3B70"/>
</g>
<defs>
<clipPath id="clip0_662_5584">
<rect width="79.2972" height="76" fill="white"/>
</clipPath>
</defs>
</svg>

<?xml version="1.0" encoding="utf-8"?>
<!-- Generator: Adobe Illustrator 26.0.1, SVG Export Plug-In . SVG Version: 6.00 Build 0)  -->
<svg version="1.1" id="Layer_1" xmlns="http://www.w3.org/2000/svg" xmlns:xlink="http://www.w3.org/1999/xlink" x="0px" y="0px"
	 viewBox="0 0 80 76" style="enable-background:new 0 0 80 76;" xml:space="preserve">
<style type="text/css">
	.st0{fill:#DFFEAE;fill-opacity:0.5;}
	.st1{fill-rule:evenodd;clip-rule:evenodd;fill:#0A3B70;}
	.st2{fill:#FFFFFF;filter:url(#Adobe_OpacityMaskFilter);}
	.st3{mask:url(#mask0_662_5584_00000039844307667495892840000016664418145647476881_);}
	.st4{fill:#FFFFFF;filter:url(#Adobe_OpacityMaskFilter_00000179637714662418732260000010541407222211002282_);}
	.st5{mask:url(#mask1_662_5584_00000101101579300990919390000007497672482547560379_);}
	.st6{fill-rule:evenodd;clip-rule:evenodd;fill:none;stroke:#0A3B70;stroke-width:3;stroke-miterlimit:10;}
</style>
<g>
	<g>
		<path class="st0" d="M63.1,1l15.8,26.2H47.3L63.1,1z"/>
		<path class="st1" d="M69.5,39.4h-9c-0.8,0-1.5-0.6-1.5-1.4s0.7-1.4,1.5-1.4h9c0.8,0,1.5,0.6,1.5,1.4S70.3,39.4,69.5,39.4z"/>
		<path class="st1" d="M54.4,25.2c-0.4,0-0.7-0.1-1-0.4c-0.6-0.5-0.6-1.4,0-2l6.3-6.1c0.6-0.5,1.5-0.5,2.1,0c0.6,0.5,0.6,1.4,0,2
			l-6.3,6.1C55.2,25.1,54.8,25.2,54.4,25.2z"/>
		<defs>
			<filter id="Adobe_OpacityMaskFilter" filterUnits="userSpaceOnUse" x="38.2" y="8" width="2.9" height="11.4">
				<feColorMatrix  type="matrix" values="1 0 0 0 0  0 1 0 0 0  0 0 1 0 0  0 0 0 1 0"/>
			</filter>
		</defs>
		
			<mask maskUnits="userSpaceOnUse" x="38.2" y="8" width="2.9" height="11.4" id="mask0_662_5584_00000039844307667495892840000016664418145647476881_">
			<path class="st2" d="M38.2,8h2.9v11.4h-2.9V8z"/>
		</mask>
		<g class="st3">
			<path class="st1" d="M39.6,19.4c-0.8,0-1.5-0.6-1.5-1.4V9.4c0-0.8,0.7-1.4,1.5-1.4c0.8,0,1.5,0.6,1.5,1.4V18
				C41.1,18.7,40.5,19.4,39.6,19.4z"/>
		</g>
		<path class="st1" d="M24.9,25.2c-0.4,0-0.7-0.1-1-0.4l-6.3-6.1c-0.6-0.5-0.6-1.4,0-2c0.6-0.5,1.5-0.5,2.1,0l6.3,6.1
			c0.6,0.5,0.6,1.4,0,2C25.6,25.1,25.2,25.2,24.9,25.2z"/>
		<defs>
			
				<filter id="Adobe_OpacityMaskFilter_00000134236174888148243000000011154347215255191225_" filterUnits="userSpaceOnUse" x="8.3" y="36.6" width="11.9" height="2.8">
				<feColorMatrix  type="matrix" values="1 0 0 0 0  0 1 0 0 0  0 0 1 0 0  0 0 0 1 0"/>
			</filter>
		</defs>
		
			<mask maskUnits="userSpaceOnUse" x="8.3" y="36.6" width="11.9" height="2.8" id="mask1_662_5584_00000101101579300990919390000007497672482547560379_">
			<path style="fill:#FFFFFF;filter:url(#Adobe_OpacityMaskFilter_00000134236174888148243000000011154347215255191225_);" d="
				M8.3,36.6h11.9v2.8H8.3V36.6z"/>
		</mask>
		<g class="st5">
			<path class="st1" d="M18.8,39.4h-9c-0.8,0-1.5-0.6-1.5-1.4s0.7-1.4,1.5-1.4h9c0.8,0,1.5,0.6,1.5,1.4S19.6,39.4,18.8,39.4z"/>
		</g>
		<path class="st1" d="M18.5,59.6c-0.4,0-0.7-0.1-1-0.4c-0.6-0.5-0.6-1.4,0-2l6.3-6.1c0.6-0.5,1.5-0.5,2.1,0c0.6,0.5,0.6,1.4,0,2
			l-6.3,6.1C19.3,59.5,18.9,59.6,18.5,59.6z"/>
		<path class="st1" d="M39.6,68c-0.8,0-1.5-0.6-1.5-1.4V58c0-0.8,0.7-1.4,1.5-1.4c0.8,0,1.5,0.6,1.5,1.4v8.6
			C41.1,67.4,40.5,68,39.6,68z"/>
		<path class="st1" d="M60.8,59.6c-0.4,0-0.7-0.1-1-0.4l-6.3-6.1c-0.6-0.5-0.6-1.4,0-2c0.6-0.5,1.5-0.5,2.1,0l6.3,6.1
			c0.6,0.5,0.6,1.4,0,2C61.5,59.5,61.1,59.6,60.8,59.6z"/>
	</g>
</g>
<circle class="st6" cx="39.6" cy="38" r="12.3"/>
</svg>
